packages/tokens/icons/salesforceCrmRequest/size32Px.svg

<svg viewBox="0 0 32 32" fill="none" xmlns="http://www.w3.org/2000/svg" width="1em" height="1em"><path d="M22.6708 21.7282C23.0585 21.8054 23.4544 21.8462 23.8605 21.8462C27.1836 21.8462 29.881 19.1282 29.881 15.7744C29.881 12.4205 27.1836 9.70259 23.8605 9.70259C23.0228 9.70217 22.1945 9.87867 21.4298 10.2205L22.6708 21.7282ZM22.6708 21.7282C21.9169 23.0718 20.4759 23.9846 18.8349 23.9846L22.6708 21.7282ZM16.9067 23.5416C17.0415 23.6073 17.1792 23.6659 17.3194 23.7173L16.9067 23.5416ZM16.9067 23.5416L16.6875 23.991C16.6877 23.9911 16.6879 23.9912 16.6881 23.9912C16.7681 23.8456 16.8411 23.6955 16.9067 23.5416ZM13.1863 9.49224L13.54 9.95822L13.9452 9.53635C14.7576 8.69068 15.8821 8.16669 17.1221 8.16669C18.7755 8.16669 20.2151 9.08416 20.9942 10.4661L21.2179 10.8629L21.6338 10.677C22.3343 10.3639 23.093 10.2022 23.8603 10.2026H23.8605C26.9036 10.2026 29.381 12.6928 29.381 15.7744C29.381 18.856 26.9036 21.3462 23.8605 21.3462C23.4882 21.3462 23.125 21.3088 22.7683 21.2378L22.4123 21.167L22.2347 21.4836C21.5651 22.677 20.2866 23.4846 18.8349 23.4846L18.8339 23.4846C18.2421 23.4858 17.6578 23.3516 17.1258 23.0921L16.6528 22.8615L16.4466 23.3457C15.758 24.9634 14.1549 26.098 12.2913 26.098C10.3437 26.098 8.69037 24.8711 8.05268 23.1428L7.90311 22.7375L7.48035 22.8267C7.19942 22.886 6.91307 22.9158 6.62595 22.9156H6.62565C4.33312 22.9156 2.46924 21.0324 2.46924 18.7079C2.46924 17.1482 3.30712 15.7907 4.55151 15.0565L4.93201 14.832L4.75609 14.4268C4.48839 13.8101 4.35059 13.1448 4.35129 12.4725V12.472C4.35129 9.75453 6.55697 7.55664 9.27693 7.55664C10.8692 7.55664 12.2931 8.31518 13.1863 9.49224Z" stroke="currentColor"/><path d="M11.1607 14.3C11.3647 14.3 11.5467 14.32 11.7067 14.36C11.8667 14.396 12.0067 14.44 12.1267 14.492C12.2467 14.544 12.3467 14.6 12.4267 14.66C12.5067 14.716 12.5667 14.766 12.6067 14.81L12.3307 15.446C12.3027 15.406 12.2527 15.36 12.1807 15.308C12.1087 15.252 12.0207 15.2 11.9167 15.152C11.8167 15.1 11.7007 15.058 11.5687 15.026C11.4407 14.99 11.3027 14.972 11.1547 14.972C10.9747 14.972 10.8027 15.002 10.6387 15.062C10.4787 15.122 10.3367 15.212 10.2127 15.332C10.0927 15.452 9.99666 15.604 9.92466 15.788C9.85266 15.968 9.81666 16.18 9.81666 16.424C9.81666 16.648 9.84866 16.852 9.91266 17.036C9.98066 17.216 10.0747 17.37 10.1947 17.498C10.3187 17.626 10.4647 17.726 10.6327 17.798C10.8047 17.866 10.9947 17.9 11.2027 17.9C11.4787 17.9 11.7127 17.85 11.9047 17.75C12.1007 17.646 12.2607 17.528 12.3847 17.396L12.6607 17.984C12.6007 18.048 12.5267 18.114 12.4387 18.182C12.3547 18.25 12.2507 18.314 12.1267 18.374C12.0067 18.43 11.8667 18.476 11.7067 18.512C11.5467 18.552 11.3647 18.572 11.1607 18.572C10.8567 18.572 10.5727 18.522 10.3087 18.422C10.0487 18.322 9.82266 18.18 9.63066 17.996C9.43866 17.812 9.28666 17.588 9.17466 17.324C9.06666 17.06 9.01266 16.764 9.01266 16.436C9.01266 16.108 9.06866 15.812 9.18066 15.548C9.29266 15.284 9.44466 15.06 9.63666 14.876C9.82866 14.692 10.0547 14.55 10.3147 14.45C10.5787 14.35 10.8607 14.3 11.1607 14.3ZM13.538 14.36L14.87 14.36C15.31 14.36 15.658 14.458 15.914 14.654C16.042 14.754 16.148 14.882 16.232 15.038C16.316 15.19 16.358 15.366 16.358 15.566C16.358 15.746 16.334 15.9 16.286 16.028C16.242 16.156 16.18 16.266 16.1 16.358C16.02 16.446 15.926 16.52 15.818 16.58C15.71 16.636 15.592 16.684 15.464 16.724L16.58 18.5H15.668L14.69 16.82H14.318V18.5H13.538V14.36ZM14.72 16.208C14.848 16.208 14.96 16.2 15.056 16.184C15.152 16.168 15.238 16.132 15.314 16.076C15.394 16.02 15.454 15.954 15.494 15.878C15.534 15.802 15.554 15.706 15.554 15.59C15.554 15.474 15.532 15.378 15.488 15.302C15.448 15.226 15.39 15.16 15.314 15.104C15.238 15.048 15.152 15.012 15.056 14.996C14.96 14.98 14.848 14.972 14.72 14.972L14.312 14.972V16.208H14.72ZM17.1932 18.5L17.5352 14.36H18.5612L19.5632 17.33H19.5752L20.5892 14.36H21.5792L21.9332 18.5H21.1652L20.9252 15.374H20.9132L19.8092 18.518H19.2632L18.1832 15.374H18.1652L17.9432 18.5H17.1932Z" fill="currentColor"/></svg>

<svg xmlns="http://www.w3.org/2000/svg" fill="none" viewBox="0 0 32 32" width="1em" height="1em"><path stroke="currentColor" d="M22.67 21.728c.388.077.784.118 1.19.118 3.324 0 6.021-2.718 6.021-6.072 0-3.353-2.697-6.071-6.02-6.071-.838 0-1.666.176-2.431.518l1.24 11.507Zm0 0a4.407 4.407 0 0 1-3.835 2.257l3.836-2.257Zm-5.763 1.814c.134.065.272.124.412.175l-.412-.175Zm0 0-.22.449h.001c.08-.145.153-.296.219-.45Zm-3.72-14.05.353.466.405-.422a4.395 4.395 0 0 1 3.177-1.37c1.654 0 3.093.918 3.872 2.3l.224.397.416-.186a5.45 5.45 0 0 1 2.226-.474c3.044 0 5.521 2.49 5.521 5.571 0 3.082-2.477 5.572-5.52 5.572a5.58 5.58 0 0 1-1.093-.108l-.356-.071-.177.317a3.907 3.907 0 0 1-3.4 2h-.001a3.878 3.878 0 0 1-1.708-.392l-.473-.23-.206.484a4.52 4.52 0 0 1-4.156 2.752 4.513 4.513 0 0 1-4.238-2.955l-.15-.405-.423.089c-.28.059-.567.089-.854.089-2.293 0-4.157-1.884-4.157-4.208a4.23 4.23 0 0 1 2.083-3.651l.38-.225-.176-.405a4.895 4.895 0 0 1-.405-1.954v-.001a4.919 4.919 0 0 1 4.926-4.915c1.592 0 3.016.758 3.91 1.935Z"/><path fill="currentColor" d="M11.16 14.3c.205 0 .387.02.547.06.16.036.3.08.42.132.12.052.22.108.3.168.08.056.14.106.18.15l-.276.636a.65.65 0 0 0-.15-.138 1.353 1.353 0 0 0-.264-.156 1.54 1.54 0 0 0-.348-.126 1.524 1.524 0 0 0-.414-.054c-.18 0-.352.03-.516.09-.16.06-.302.15-.426.27a1.31 1.31 0 0 0-.288.456c-.072.18-.108.392-.108.636 0 .224.032.428.096.612.068.18.162.334.282.462.124.128.27.228.438.3.172.068.362.102.57.102.276 0 .51-.05.702-.15.196-.104.356-.222.48-.354l.276.588a1.88 1.88 0 0 1-.534.39c-.12.056-.26.102-.42.138-.16.04-.342.06-.546.06-.304 0-.588-.05-.852-.15-.26-.1-.486-.242-.678-.426a1.999 1.999 0 0 1-.456-.672 2.326 2.326 0 0 1-.162-.888c0-.328.056-.624.168-.888.112-.264.264-.488.456-.672.192-.184.418-.326.678-.426.264-.1.546-.15.846-.15Zm2.378.06h1.332c.44 0 .788.098 1.044.294.128.1.234.228.318.384.084.152.126.328.126.528 0 .18-.024.334-.072.462a.984.984 0 0 1-.186.33 1.1 1.1 0 0 1-.282.222 2.18 2.18 0 0 1-.354.144L16.58 18.5h-.912l-.978-1.68h-.372v1.68h-.78v-4.14Zm1.182 1.848c.128 0 .24-.008.336-.024a.593.593 0 0 0 .258-.108.562.562 0 0 0 .18-.198.615.615 0 0 0 .06-.288.568.568 0 0 0-.24-.486.593.593 0 0 0-.258-.108 2.067 2.067 0 0 0-.336-.024h-.408v1.236h.408Zm2.473 2.292.342-4.14h1.026l1.002 2.97h.012l1.014-2.97h.99l.354 4.14h-.768l-.24-3.126h-.012l-1.104 3.144h-.546l-1.08-3.144h-.018l-.222 3.126h-.75Z"/></svg>
